X:32
T:Grits and Kool-Aid
R:reel
C: 1978, 2010 L.E. McCullough  
M:4/4
L:1/8
K:Ador
ed|:c~A3 ~G3A|Bded B~A3|e~d3 ~g3d|eged BAGB|
~A3G ~A3g|edeg aged|e~g3 ~e3d|1 B~G3 ~A3B:|2 B~G3 ~A3d|]
|:e~g3 a2 ga|b~g3 aged|e~g3 agea|gedG B~A3|
e~g3 a~g3|b~g3 edBA|~G3A B~G3|1 DGBG ~A3d:|2 edBG ~A3B|]

